Obsidian/actions/24s/kstars_cnames.svg

<svg height="24" viewBox="0 0 24 24" width="24" xmlns="http://www.w3.org/2000/svg"><path d="m3.9003906 0c-2.7614 0-3.9003906 2.2386-3.9003906 5v6c0 2.7614 1.1389906 5 3.9003906 5s3.5996094-2.2386 3.5996094-5v-6c0-2.7614-.8381894-5-3.5996094-5zm0 1c2.2091 0 2.5996094 1.7909 2.5996094 4v6c0 2.2091-.3904794 4-2.5996094 4s-2.9003906-1.7909-2.9003906-4v-6c0-2.2091.6912406-4 2.9003906-4zm11.0996094 3v1h1v-1zm-6 3v9h1v-6c0-1.1046.89543-2 2-2s1 .8954 1 2h1c0-1.6569-.34315-3-2-3-.73841.001-1.4505.2742781-2 .7675781v-.7675781zm6 0v9h1v-9z" fill="#bebebe" transform="translate(4 4)"/></svg>

<svg xmlns="http://www.w3.org/2000/svg" width="24" height="24" viewBox="0 0 24 24">
 <defs>
  <style id="current-color-scheme" type="text/css">
   .ColorScheme-Text { color:#bebebe; } .ColorScheme-Highlight { color:#4285f4; }
  </style>
 </defs>
 <path style="fill:currentColor" class="ColorScheme-Text" d="M 3.9003906 0 C 1.1389906 0 5.9211895e-16 2.2386 0 5 L 0 11 C 0 13.7614 1.1389906 16 3.9003906 16 C 6.6617906 16 7.5 13.7614 7.5 11 L 7.5 5 C 7.5 2.2386 6.6618106 0 3.9003906 0 z M 3.9003906 1 C 6.1094906 1 6.5 2.7909 6.5 5 L 6.5 11 C 6.5 13.2091 6.1095206 15 3.9003906 15 C 1.6912606 15 1 13.2091 1 11 L 1 5 C 1 2.7909 1.6912406 1 3.9003906 1 z M 15 4 L 15 5 L 16 5 L 16 4 L 15 4 z M 9 7 L 9 16 L 10 16 L 10 10 C 10 8.8954 10.89543 8 12 8 C 13.10457 8 13 8.8954 13 10 L 14 10 C 14 8.3431 13.65685 7 12 7 C 11.26159 7.001 10.5495 7.2742781 10 7.7675781 L 10 7 L 9 7 z M 15 7 L 15 16 L 16 16 L 16 7 L 15 7 z" transform="translate(4 4)"/>
</svg>
